Sources/FrostedUI/Resources/Icons.xcassets/hourGlass24.imageset/hour-glass-24.svg

<svg width="24" height="24" viewBox="0 0 24 24" fill="none" xmlns="http://www.w3.org/2000/svg" data-fui-icon="true">
  <path
    d="M17.9998 1.65039C19.0664 1.6505 19.9838 2.53179 19.9109 3.6543C19.7938 5.456 19.4207 6.78518 18.8962 7.80273C18.3686 8.82616 17.7082 9.49434 17.0828 9.99707C16.7769 10.2429 16.4745 10.4527 16.2205 10.6318C15.9566 10.8179 15.7505 10.9672 15.5828 11.1182C15.2831 11.3881 15.1493 11.6183 15.1492 12C15.1493 12.3819 15.2828 12.6128 15.5828 12.8828C15.7506 13.0338 15.9564 13.183 16.2205 13.3691C16.4746 13.5483 16.7767 13.7579 17.0828 14.0039C17.7083 14.5067 18.3686 15.1746 18.8962 16.1982C19.4207 17.2159 19.7938 18.5448 19.9109 20.3467C19.9836 21.469 19.0662 22.3505 17.9998 22.3506H5.99976C4.93337 22.3504 4.01596 21.4689 4.08862 20.3467C4.20566 18.545 4.57889 17.2158 5.10327 16.1982C5.63072 15.1749 6.29049 14.5067 6.91577 14.0039C7.22156 13.7581 7.52402 13.5483 7.77808 13.3691C8.04212 13.183 8.24894 13.0338 8.41675 12.8828C8.71673 12.6128 8.84928 12.3819 8.84937 12C8.84927 11.6182 8.71666 11.3882 8.41675 11.1182C8.24887 10.967 8.04232 10.8181 7.77808 10.6318C7.52392 10.4526 7.22174 10.243 6.91577 9.99707C6.29038 9.4943 5.63084 8.82621 5.10327 7.80273C4.57877 6.78515 4.20572 5.45611 4.08862 3.6543C4.01572 2.53186 4.93325 1.65061 5.99976 1.65039H17.9998ZM5.99976 3.15039C5.74122 3.15061 5.57276 3.35665 5.58569 3.55664C5.69248 5.20025 6.026 6.31913 6.43628 7.11523C6.84355 7.90533 7.34705 8.41883 7.8562 8.82812C8.11734 9.03802 8.37626 9.21699 8.64331 9.40527C8.90022 9.58641 9.17621 9.78382 9.41968 10.0029C9.94256 10.4737 10.3492 11.082 10.3494 12C10.3493 12.918 9.94256 13.5263 9.41968 13.9971C9.17632 14.2161 8.90012 14.4137 8.64331 14.5947C8.37635 14.7829 8.11726 14.963 7.8562 15.1729C7.34715 15.5821 6.84347 16.0958 6.43628 16.8857C6.02612 17.6819 5.69243 18.801 5.58569 20.4443C5.57313 20.6441 5.74148 20.8504 5.99976 20.8506H17.9998C18.2582 20.8505 18.4264 20.6442 18.4138 20.4443C18.3071 18.8006 17.9726 17.6819 17.5623 16.8857C17.155 16.0956 16.6525 15.5822 16.1433 15.1729C15.8821 14.9629 15.6234 14.7831 15.3562 14.5947C15.0992 14.4135 14.8224 14.2163 14.5789 13.9971C14.0561 13.5264 13.6493 12.9178 13.6492 12C13.6493 11.0823 14.0562 10.4736 14.5789 10.0029C14.8223 9.78379 15.0993 9.58643 15.3562 9.40527C15.6232 9.21705 15.8823 9.03794 16.1433 8.82812C16.6524 8.41888 17.155 7.90518 17.5623 7.11523C17.9726 6.31912 18.307 5.20039 18.4138 3.55664C18.4267 3.35661 18.2584 3.15049 17.9998 3.15039H5.99976ZM15.5984 5.3252C15.9297 5.3252 16.2049 5.59785 16.116 5.91699C15.7541 7.2139 14.2725 8.45161 12.658 9.23438C12.2422 9.43578 11.7573 9.43589 11.3416 9.23438C9.72705 8.45161 8.24539 7.2139 7.88354 5.91699C7.79469 5.59801 8.06998 5.3254 8.40112 5.3252H15.5984Z"
    fill="currentColor"
  />
</svg>

<svg xmlns="http://www.w3.org/2000/svg" width="24" height="24" fill="none" data-fui-icon="true" viewBox="0 0 24 24"><path fill="currentColor" d="M18 1.65c1.066 0 1.984.882 1.91 2.004-.116 1.802-.49 3.131-1.014 4.149a6.7 6.7 0 0 1-1.813 2.194c-.306.246-.608.456-.862.635-.264.186-.47.335-.638.486-.3.27-.434.5-.434.882s.134.613.434.883c.168.15.373.3.638.486.254.18.556.389.862.635a6.7 6.7 0 0 1 1.813 2.194c.525 1.018.898 2.347 1.015 4.149.073 1.122-.845 2.003-1.911 2.004H6c-1.067 0-1.984-.882-1.911-2.004.117-1.802.49-3.131 1.014-4.149a6.7 6.7 0 0 1 1.813-2.194c.306-.246.608-.456.862-.635a7 7 0 0 0 .639-.486c.3-.27.432-.501.432-.883s-.132-.612-.432-.882a7 7 0 0 0-.639-.486c-.254-.18-.556-.389-.862-.635a6.7 6.7 0 0 1-1.813-2.194C4.58 6.785 4.206 5.456 4.09 3.654c-.073-1.122.844-2.003 1.91-2.004zM6 3.15c-.259 0-.427.207-.414.407.106 1.643.44 2.762.85 3.558.408.79.911 1.304 1.42 1.713.261.21.52.389.787.577.257.181.533.379.777.598.523.47.93 1.079.93 1.997s-.407 1.526-.93 1.997c-.244.22-.52.417-.777.598-.267.188-.526.368-.787.578-.509.41-1.013.923-1.42 1.713-.41.796-.744 1.915-.85 3.558-.013.2.155.406.414.407h12c.258 0 .426-.207.414-.407-.107-1.643-.441-2.762-.852-3.558a5.2 5.2 0 0 0-1.419-1.713c-.26-.21-.52-.39-.787-.578a8 8 0 0 1-.777-.598c-.523-.47-.93-1.08-.93-1.997 0-.918.407-1.526.93-1.997.243-.22.52-.417.777-.598.267-.188.526-.367.787-.577a5.2 5.2 0 0 0 1.42-1.713c.41-.796.744-1.915.85-3.558.014-.2-.155-.407-.413-.407zm9.598 2.175c.332 0 .607.273.518.592-.362 1.297-1.843 2.535-3.458 3.317a1.51 1.51 0 0 1-1.316 0c-1.615-.782-3.097-2.02-3.458-3.317-.09-.319.186-.592.517-.592z"/></svg>
